X:1
T:The False Bride
M:3/4
L:1/4
K:F
 z2 C| F F C| F3/2 z/2 C/2C/2| F G A| B3/2 z/2 A/2B/2| c A G| F C D|\
 _E D E| C3/2 z/2A/2-B/2| c3/2 d/2 c| B A G| F G A| C3/2 z/2 C/2D/2|\
 _E D C| B, A, B,| C F2-| F2 z|
